!!!OTL: Reigen (3-99), S. 270
!!!id: P1073V
**kern
*clefG2
*k[f#]
*G:
{4g
=1
4.g
8f#
4g
=2
4a
4a
8a
8a
=3
4.d
8d
4d
=4
2a}
=5
{4b
=6
4.g
8f#
4g
=7
8a
8a
4a
4b
=8
8b
8b
4b
4a
=9
2g}
=10
{4g
=11
4.g
8f#
4g
=12
4a
4a
4dd
=13
4.dd
8cc
4dd
=14
4.a
8b}
=15
{4b
=16
4.g
8f#
4g
=17
4a
4a
4b
=18
4.b
8b
4a
=19
2g}
==
*-
!!!minrhy: 8
!!!meters: 3/4 ]  ZZ[4
!!!cut: Reigen (3-99), S. 270
!!!reg: Lothringen
!!!trd: PINCK, Louis: Verklingende Weisen, Bd3, Metz 1933
!!!rhy1: X_  X_.XX_  X_X_XX  X_.XX_  X__
!!!rhy2: X_  X_.XX_  XXX_X_  XXX_X_  X__
!!!key: P1073V 08  G 3/4 ]  ZZ[4
!!!mod: SECHSTONSKALA DUR ?]  AMBITUS[8
!!!kad: 2131
!!!akz: 12-52_1231_1252_1231_
!!!fot: 'a__b__c__bv_
!!!for: 'a__b__c__cw_
!!!fok: 'Va_Sd_^a_Sd_
!! PHRAS[AUFTAKTIG]
!!!fkt: Tanzlied?
!!!bem: 2. Melodie stammt von der 2. Strophe
!! LOTH VKL
!! PR[36] 2K[2] 2G[16] 3K[0] 3G[0] 4A[11] 4Ü[0] 5A[0] 6K[0] 6G[0]
!! 7K[0] 7G[0] 8A[0] MEHR[0] SI[29] ABS[55] SR[18] SP[11]
!! ST[16] 2k[2] 2g[16] 3k[11] 3g[5] 4d[0] 4ü[0] 5d[0] 6k[0] 6g[0]
!! 7k[0] 7g[0] 8d[0] mehr[0] si[35] dm[-6] sr[18] sp[16]
!! 1F[14] 2F[75] 3F[8] 4F[0] LF[0] 2P[0] 3P[3] 4P[0] TRI[0] DF[4] AB[59]
!! TF[0] U3K[0] U3[0] U4[0] U4Ü[0] U5[0] U6K[0] U6[0] U7K[0] U7[2]
!! N1[25] N2K[0] N2[32] N3K[0] N3[18] N4[5] N4Ü[0] N5[18] N6K[0] N6[0]
!!!n7k: 0] N7[0] O1[0] O2K[0] O2[0] O3K[0] O3[0] HÖ[0
